storage/app/icons/phosphoricons/thin/cards-three-thin.svg

<svg xmlns="http://www.w3.org/2000/svg" fill="currentColor" viewBox="0 0 256 256"><path d="M208 92H48a12 12 0 0 0-12 12v96a12 12 0 0 0 12 12h160a12 12 0 0 0 12-12v-96a12 12 0 0 0-12-12m4 108a4 4 0 0 1-4 4H48a4 4 0 0 1-4-4v-96a4 4 0 0 1 4-4h160a4 4 0 0 1 4 4ZM52 64a4 4 0 0 1 4-4h144a4 4 0 0 1 0 8H56a4 4 0 0 1-4-4m16-32a4 4 0 0 1 4-4h112a4 4 0 0 1 0 8H72a4 4 0 0 1-4-4"/></svg>

<svg xmlns="http://www.w3.org/2000/svg" viewBox="0 0 256 256" fill="currentColor"><path d="M208,92H48a12,12,0,0,0-12,12v96a12,12,0,0,0,12,12H208a12,12,0,0,0,12-12V104A12,12,0,0,0,208,92Zm4,108a4,4,0,0,1-4,4H48a4,4,0,0,1-4-4V104a4,4,0,0,1,4-4H208a4,4,0,0,1,4,4ZM52,64a4,4,0,0,1,4-4H200a4,4,0,0,1,0,8H56A4,4,0,0,1,52,64ZM68,32a4,4,0,0,1,4-4H184a4,4,0,0,1,0,8H72A4,4,0,0,1,68,32Z"/></svg>
